source/bookmark.svg

<svg width="24" height="24" viewBox="0 0 24 24" fill="none" xmlns="http://www.w3.org/2000/svg">
<path fill-rule="evenodd" clip-rule="evenodd" d="M5 2.75C4.86193 2.75 4.75 2.86193 4.75 3V21C4.75 21.1381 4.86192 21.25 5 21.25H19C19.1381 21.25 19.25 21.1381 19.25 21V3C19.25 2.86192 19.1381 2.75 19 2.75H5ZM3.25 3C3.25 2.0335 4.0335 1.25 5 1.25H19C19.9665 1.25 20.75 2.03351 20.75 3V21C20.75 21.9665 19.9665 22.75 19 22.75H5C4.03351 22.75 3.25 21.9665 3.25 21V3Z" fill="#1C1B1F"/>
<path fill-rule="evenodd" clip-rule="evenodd" d="M9.75 2C9.75 1.58579 10.0858 1.25 10.5 1.25H16.5C16.9142 1.25 17.25 1.58579 17.25 2V11C17.25 11.3064 17.0636 11.582 16.7793 11.6961C16.495 11.8102 16.1698 11.7398 15.958 11.5184L13.5 8.94868L11.042 11.5184C10.8302 11.7398 10.505 11.8102 10.2207 11.6961C9.93636 11.582 9.75 11.3064 9.75 11V2ZM11.25 2.75V9.13088L12.958 7.34523C13.0995 7.19731 13.2953 7.11365 13.5 7.11365C13.7047 7.11365 13.9005 7.19731 14.042 7.34523L15.75 9.13088V2.75H11.25Z" fill="#1C1B1F"/>
<path fill-rule="evenodd" clip-rule="evenodd" d="M4.25 2C4.25 1.58579 4.58579 1.25 5 1.25H19C19.4142 1.25 19.75 1.58579 19.75 2C19.75 2.41421 19.4142 2.75 19 2.75H5C4.58579 2.75 4.25 2.41421 4.25 2Z" fill="#1C1B1F"/>
</svg>

<svg xmlns="http://www.w3.org/2000/svg" width="24" height="24" fill="none" viewBox="0 0 24 24">
  <path fill="#1C1B1F" fill-rule="evenodd" d="M5 2.75a.25.25 0 0 0-.25.25v18c0 .138.112.25.25.25h14a.25.25 0 0 0 .25-.25V3a.25.25 0 0 0-.25-.25H5ZM3.25 3c0-.966.784-1.75 1.75-1.75h14c.966 0 1.75.784 1.75 1.75v18A1.75 1.75 0 0 1 19 22.75H5A1.75 1.75 0 0 1 3.25 21V3Z" clip-rule="evenodd"/>
  <path fill="#1C1B1F" fill-rule="evenodd" d="M9.75 2a.75.75 0 0 1 .75-.75h6a.75.75 0 0 1 .75.75v9a.75.75 0 0 1-1.292.518L13.5 8.948l-2.458 2.57A.75.75 0 0 1 9.75 11V2Zm1.5.75v6.38l1.708-1.785a.75.75 0 0 1 1.084 0l1.708 1.786V2.75h-4.5Z" clip-rule="evenodd"/>
  <path fill="#1C1B1F" fill-rule="evenodd" d="M4.25 2A.75.75 0 0 1 5 1.25h14a.75.75 0 0 1 0 1.5H5A.75.75 0 0 1 4.25 2Z" clip-rule="evenodd"/>
</svg>
